svgs/duotone/paste.svg

<svg xmlns="http://www.w3.org/2000/svg" viewBox="0 0 512 512"><!-- Font Awesome Pro 6.0.0-alpha2 by @fontawesome - https://fontawesome.com License - https://fontawesome.com/license (Commercial License) --><defs><style>.fa-secondary{opacity:.4}</style></defs><path d="M512 224V464C512 490.51 490.51 512 464 512H272C245.49 512 224 490.51 224 464V176C224 149.49 245.49 128 272 128H416V224H512Z" class="fa-secondary"/><path d="M416 128V224H512L416 128ZM272 32H215.375C204.312 12.891 183.625 0 160 0S115.688 12.891 104.625 32H48C21.49 32 0 53.49 0 80V400C0 426.51 21.49 448 48 448H192V176C192 131.816 227.816 96 272 96H320V80C320 53.49 298.51 32 272 32ZM160 88C146.75 88 136 77.25 136 64S146.75 40 160 40S184 50.75 184 64S173.25 88 160 88Z" class="fa-primary"/></svg>

<svg xmlns="http://www.w3.org/2000/svg" viewBox="0 0 512 512"><!--! Font Awesome Pro 6.4.0 by @fontawesome - https://fontawesome.com License - https://fontawesome.com/license (Commercial License) Copyright 2023 Fonticons, Inc. --><defs><style>.fa-secondary{opacity:.4}</style></defs><path class="fa-primary" d="M160 0c-23.7 0-44.4 12.9-55.4 32H48C21.5 32 0 53.5 0 80V400c0 26.5 21.5 48 48 48H192V176c0-44.2 35.8-80 80-80h48V80c0-26.5-21.5-48-48-48H215.4C204.4 12.9 183.7 0 160 0zm0 40a24 24 0 1 1 0 48 24 24 0 1 1 0-48z"/><path class="fa-secondary" d="M224 176c0-26.5 21.5-48 48-48H396.1c12.7 0 24.9 5.1 33.9 14.1l67.9 67.9c9 9 14.1 21.2 14.1 33.9V464c0 26.5-21.5 48-48 48H272c-26.5 0-48-21.5-48-48V176z"/></svg>
